build/img/about_methods/card/icons/yellow.svg

<svg width="64" height="63" viewBox="0 0 64 63" fill="none" xmlns="http://www.w3.org/2000/svg">
<path fill-rule="evenodd" clip-rule="evenodd" d="M38.4986 2.64193C51.8783 4.02254 58.3751 17.0076 61.1797 29.132C63.4458 38.9286 59.3213 48.61 50.4517 54.3165C40.337 60.8241 27.1264 64.2342 17.0341 57.5343C5.15575 49.6487 -1.36442 35.7785 3.55941 23.1864C8.7381 9.94262 23.2371 1.06717 38.4986 2.64193Z" fill="#E4E19C"/>
<path d="M42.4696 39.4255L40.4894 39.7484C40.0452 39.8236 39.6851 40.1111 39.569 40.5098L39.0697 42.092C38.7985 42.953 37.5739 43.1624 36.981 42.442L33.6298 38.5027C33.361 38.1823 33.5404 37.7103 33.9727 37.6345C36.0976 37.2754 38.0409 36.2941 39.5098 34.8284C39.7484 34.5893 40.1536 34.5777 40.3908 34.8199L42.8981 37.3801C43.7564 38.2566 43.3817 39.2764 42.4696 39.4255Z" fill="white"/>
<path d="M20.4583 38.272L22.3939 38.8001C22.8278 38.9213 23.1559 39.2448 23.2296 39.6535L23.5609 41.2792C23.7406 42.1639 24.9366 42.5001 25.6016 41.8457L29.3462 38.2782C29.647 37.9876 29.5179 37.4995 29.0959 37.3789C27.0202 36.7997 25.1901 35.6206 23.8824 34.0094C23.6701 33.7466 23.2684 33.6927 23.0072 33.9088L20.246 36.193C19.3007 36.975 19.5668 38.0283 20.4583 38.272Z" fill="white"/>
<path d="M32.4354 20.8799C27.8433 20.6393 23.9502 23.8598 23.7289 28.0823C23.646 29.6644 24.0802 31.1423 24.8948 32.3994C26.0849 34.2123 28.0493 35.5516 30.3941 35.9918C30.7941 36.0784 31.2077 36.1329 31.6348 36.1553C32.062 36.1777 32.479 36.1667 32.8859 36.1224C35.2638 35.9297 37.3575 34.8031 38.7305 33.1245C39.6721 31.9594 40.2584 30.535 40.3413 28.9529C40.5626 24.7304 37.0275 21.1206 32.4354 20.8799ZM35.6787 28.4679L34.6463 29.3219C34.4722 29.4659 34.3618 29.7555 34.4097 29.9769L34.6356 31.1156C34.8148 32.0112 34.2862 32.3336 33.4565 31.8197L32.3036 31.1137C32.0963 30.9825 31.7403 30.9639 31.5204 31.0727L30.3001 31.6543C29.4218 32.0677 28.9292 31.7028 29.201 30.8308L29.5447 29.7219C29.603 29.5171 29.536 29.2072 29.3779 29.0458L28.4167 28.0873C27.8633 27.5222 28.0812 26.9975 28.8943 26.9198L30.1743 26.7899C30.3896 26.7684 30.6479 26.6068 30.752 26.4372L31.5196 25.1864C31.9359 24.508 32.5529 24.5404 32.896 25.2586L33.5286 26.5828C33.6144 26.7623 33.8545 26.9499 34.0782 26.9945L35.3376 27.2574C36.1263 27.4191 36.2881 27.9637 35.6787 28.4679Z" fill="white"/>
</svg>

<svg width="64" height="63" fill="none" xmlns="http://www.w3.org/2000/svg"><path fill-rule="evenodd" clip-rule="evenodd" d="M38.499 2.642c13.38 1.38 19.876 14.366 22.68 26.49 2.267 9.797-1.858 19.478-10.727 25.184-10.115 6.508-23.326 9.918-33.418 3.218C5.156 49.65-1.364 35.78 3.56 23.186 8.74 9.943 23.237 1.067 38.5 2.642Z" fill="#E4E19C"/><path d="m42.47 39.425-1.98.323c-.445.076-.805.363-.921.762l-.5 1.582c-.27.861-1.495 1.07-2.088.35l-3.351-3.94c-.269-.32-.09-.792.343-.867 2.125-.36 4.068-1.34 5.537-2.807a.628.628 0 0 1 .88-.008l2.508 2.56c.858.877.484 1.896-.428 2.045Zm-22.012-1.153 1.936.528c.434.121.762.445.836.854l.33 1.625c.18.885 1.377 1.221 2.042.567l3.744-3.568c.301-.29.172-.779-.25-.9-2.076-.578-3.906-1.757-5.214-3.369a.628.628 0 0 0-.875-.1l-2.761 2.284c-.945.782-.68 1.835.212 2.079ZM32.435 20.88c-4.592-.24-8.485 2.98-8.706 7.202a7.185 7.185 0 0 0 1.166 4.317c1.19 1.813 3.154 3.153 5.5 3.593.4.086.813.14 1.24.163a7.78 7.78 0 0 0 1.25-.033c2.379-.192 4.473-1.319 5.846-2.998a7.184 7.184 0 0 0 1.61-4.171c.222-4.223-3.313-7.832-7.906-8.073Zm3.244 7.588-1.033.854c-.174.144-.284.434-.236.655l.226 1.139c.179.895-.35 1.218-1.18.704l-1.152-.706a.898.898 0 0 0-.784-.041l-1.22.581c-.878.414-1.37.049-1.099-.823l.344-1.11c.058-.204-.009-.514-.167-.675l-.961-.959c-.554-.565-.336-1.09.477-1.167l1.28-.13a.863.863 0 0 0 .578-.353l.768-1.25c.416-.679 1.033-.647 1.376.072l.633 1.324c.085.18.325.367.55.412l1.259.262c.788.162.95.707.34 1.21Z" fill="#fff"/></svg>
